flaticon/hand-gestures/drag-19.svg

<svg xmlns="http://www.w3.org/2000/svg" width="32" height="32" viewBox="0 0 24 24">
    <path d="M22.914062 1.359375C22.875 1.320312 22.875 1.320312 22.875 1.320312L21.675781.121094C21.515625-.0390625 21.273438-.0390625 21.113281.121094 20.953125.28125 20.953125.519531 21.113281.679688L21.636719 1.199219 17.953125 1.199219 18.476562.679688C18.554688.601562 18.59375.519531 18.59375.398438 18.59375.28125 18.554688.199219 18.476562.121094 18.316406-.0390625 18.074219-.0390625 17.914062.121094L16.714844 1.320312C16.636719 1.359375 16.59375 1.480469 16.59375 1.558594 16.59375 1.601562 16.59375 1.601562 16.59375 1.640625 16.59375 1.71875 16.636719 1.800781 16.675781 1.839844 16.714844 1.878906 16.714844 1.878906 16.714844 1.878906L17.914062 3.078125C18.074219 3.238281 18.316406 3.238281 18.476562 3.078125 18.636719 2.921875 18.636719 2.679688 18.476562 2.519531L17.953125 2 21.636719 2 21.113281 2.519531C21.035156 2.601562 20.996094 2.679688 20.996094 2.800781 20.996094 2.921875 21.035156 3 21.113281 3.078125 21.195312 3.160156 21.273438 3.199219 21.394531 3.199219 21.515625 3.199219 21.59375 3.160156 21.675781 3.078125L22.875 1.878906C22.953125 1.839844 22.996094 1.71875 22.996094 1.640625 22.996094 1.601562 22.996094 1.601562 22.996094 1.558594 22.996094 1.480469 22.953125 1.398438 22.914062 1.359375zM15.59375 8.398438C15.234375 8.398438 14.875 8.519531 14.59375 8.761719L14.59375 8.398438C14.59375 7.441406 13.835938 6.398438 12.796875 6.398438 12.433594 6.398438 12.074219 6.519531 11.796875 6.761719 11.796875 5.839844 10.996094 4.800781 9.996094 4.800781 9.636719 4.800781 9.273438 4.921875 8.996094 5.160156L8.996094 2C8.996094 1.039062 8.234375 0 7.195312 0 6.15625 0 5.394531 1.039062 5.394531 2L5.394531 10.480469C5.035156 9.71875 4.554688 9 4.074219 8.519531 3.433594 7.878906 2.15625 7.839844 1.433594 8.441406 1.234375 8.640625.554688 9.359375 1.476562 10.640625 2.316406 11.839844 2.996094 14.480469 2.996094 16 2.996094 19.199219 5.074219 20.640625 5.796875 21.039062L5.796875 23.601562C5.796875 23.839844 5.953125 24 6.195312 24 6.433594 24 6.59375 23.839844 6.59375 23.601562L6.59375 20.800781C6.59375 20.640625 6.515625 20.519531 6.355469 20.441406 6.234375 20.398438 3.796875 19.238281 3.796875 16 3.796875 14.519531 3.15625 11.601562 2.113281 10.160156 1.835938 9.800781 1.59375 9.320312 1.953125 9.039062 2.355469 8.71875 3.15625 8.71875 3.515625 9.078125 4.515625 10.078125 5.394531 12.199219 5.394531 13.199219 5.394531 13.441406 5.554688 13.601562 5.796875 13.601562 6.035156 13.601562 6.195312 13.441406 6.195312 13.199219L6.195312 2C6.195312 1.441406 6.636719.800781 7.195312.800781 7.753906.800781 8.195312 1.441406 8.195312 2L8.195312 10.800781C8.195312 11.039062 8.355469 11.199219 8.59375 11.199219 8.835938 11.199219 8.996094 11.039062 8.996094 10.800781L8.996094 6.800781C8.996094 6.238281 9.433594 5.601562 9.996094 5.601562 10.554688 5.601562 10.996094 6.238281 10.996094 6.800781L10.996094 11.199219C10.996094 11.441406 11.15625 11.601562 11.394531 11.601562 11.636719 11.601562 11.792969 11.441406 11.792969 11.199219L11.792969 8.398438C11.792969 7.839844 12.234375 7.199219 12.792969 7.199219 13.355469 7.199219 13.792969 7.839844 13.792969 8.398438L13.792969 10.320312C13.792969 10.359375 13.792969 10.359375 13.792969 10.398438L13.792969 12C13.792969 12.238281 13.953125 12.398438 14.195312 12.398438 14.433594 12.398438 14.59375 12.238281 14.59375 12L14.59375 10.320312C14.632812 9.800781 15.074219 9.199219 15.59375 9.199219 16.15625 9.199219 16.59375 9.839844 16.59375 10.398438L16.59375 16C16.59375 19.039062 16.59375 19.039062 15.476562 20.558594 15.394531 20.640625 15.394531 20.761719 15.394531 20.839844L15.394531 23.601562C15.394531 23.839844 15.554688 24 15.792969 24 16.035156 24 16.195312 23.839844 16.195312 23.601562L16.195312 20.921875C17.394531 19.320312 17.394531 19.121094 17.394531 16L17.394531 10.398438C17.394531 9.441406 16.636719 8.398438 15.59375 8.398438zM15.59375 8.398438"/>
    <path d="M11.394531 20.398438C11.636719 20.398438 11.796875 20.238281 11.796875 20 11.796875 19.761719 11.636719 19.601562 11.394531 19.601562L10.195312 19.601562C9.953125 19.601562 9.796875 19.761719 9.796875 20 9.796875 20.238281 9.953125 20.398438 10.195312 20.398438zM11.796875 21.199219L9.792969 21.199219C9.554688 21.199219 9.394531 21.359375 9.394531 21.601562 9.394531 21.839844 9.554688 22 9.792969 22L11.796875 22C12.035156 22 12.195312 21.839844 12.195312 21.601562 12.195312 21.359375 12.035156 21.199219 11.796875 21.199219zM11.796875 21.199219"/>
</svg>

<svg xmlns="http://www.w3.org/2000/svg" width="32" height="32" viewBox="0 0 24 24">
    <path d="M22.914 1.36l-.039-.04-1.2-1.199a.39.39 0 0 0-.562 0 .385.385 0 0 0 0 .559l.524.52h-3.684l.524-.52a.366.366 0 0 0 .117-.282c0-.117-.04-.199-.117-.277a.39.39 0 0 0-.563 0l-1.2 1.2c-.077.038-.12.16-.12.238v.082c0 .078.043.16.082.199l.039.039 1.2 1.2c.16.16.401.16.562 0a.385.385 0 0 0 0-.56L17.953 2h3.684l-.524.52a.371.371 0 0 0-.117.28c0 .122.04.2.117.278.082.082.16.121.282.121.12 0 .199-.039.28-.12l1.2-1.2c.078-.04.121-.16.121-.238v-.082a.311.311 0 0 0-.082-.2zm0 0M15.594 8.398c-.36 0-.719.122-1 .364v-.364c0-.957-.758-2-1.797-2-.363 0-.723.122-1 .364 0-.922-.8-1.961-1.8-1.961-.36 0-.724.12-1 .36V2c0-.96-.763-2-1.802-2-1.039 0-1.8 1.04-1.8 2v8.48c-.36-.761-.84-1.48-1.32-1.96-.641-.641-1.919-.68-2.641-.079-.2.2-.88.918.043 2.2.84 1.199 1.52 3.84 1.52 5.359 0 3.2 2.077 4.64 2.8 5.04v2.562c0 .238.156.398.398.398.239 0 .399-.16.399-.398V20.8c0-.16-.078-.281-.239-.36-.12-.043-2.558-1.203-2.558-4.441 0-1.48-.64-4.398-1.684-5.84-.277-.36-.52-.84-.16-1.12.402-.321 1.203-.321 1.563.038 1 1 1.879 3.121 1.879 4.121 0 .242.16.403.402.403.238 0 .398-.16.398-.403V2c0-.559.442-1.2 1-1.2.559 0 1 .641 1 1.2v8.8c0 .24.16.4.399.4.242 0 .402-.16.402-.4v-4c0-.562.438-1.198 1-1.198.559 0 1 .636 1 1.199v4.398c0 .242.16.403.399.403.242 0 .398-.16.398-.403V8.4c0-.56.441-1.2 1-1.2.562 0 1 .64 1 1.2V12c0 .238.16.398.402.398.239 0 .399-.16.399-.398v-1.68c.039-.52.48-1.12 1-1.12.562 0 1 .64 1 1.198V16c0 3.04 0 3.04-1.117 4.559-.082.082-.082.203-.082.28v2.763c0 .238.16.398.398.398.242 0 .402-.16.402-.398v-2.68c1.2-1.602 1.2-1.8 1.2-4.922v-5.602c0-.957-.758-2-1.801-2zm0 0"/>
    <path d="M11.395 20.398c.242 0 .402-.16.402-.398 0-.238-.16-.398-.402-.398h-1.2c-.242 0-.398.16-.398.398 0 .238.156.398.398.398zm0 0M11.797 21.2H9.793c-.238 0-.398.16-.398.402 0 .238.16.398.398.398h2.004c.238 0 .398-.16.398-.398 0-.243-.16-.403-.398-.403zm0 0"/>
</svg>
